game/static/game/image/speedoFuel1.svg

<?xml version="1.0" encoding="UTF-8" standalone="no"?>
<!-- Generator: Adobe Illustrator 16.2.1, SVG Export Plug-In . SVG Version: 6.00 Build 0)  -->
<!DOCTYPE svg  PUBLIC '-//W3C//DTD SVG 1.1//EN'  'http://www.w3.org/Graphics/SVG/1.1/DTD/svg11.dtd'>
<svg xmlns="http://www.w3.org/2000/svg" xml:space="preserve" version="1.1" xmlns:xlink="http://www.w3.org/1999/xlink" enable-background="new 0 0 219.814 219.814" viewBox="0 0 219.814 219.814">
<g id="bg">
		<linearGradient id="SVGID_1_" y2="186.35" gradientUnits="userSpaceOnUse" x2="109.91" y1="9.9463" x1="109.91">
			<stop stop-color="#050505" offset="0"/>
			<stop stop-color="#111" offset="1"/>
		</linearGradient>
		<circle stroke-width="7" cy="109.91" stroke="#3A3A3A" cx="109.91" stroke-miterlimit="10" r="106.41" fill="url(#SVGID_1_)"/>
		<circle cx="109.91" cy="109.91" stroke="#E8E8E8" r="92.574" stroke-miterlimit="10" fill="none"/>
			<g stroke="#fff" stroke-width="4" stroke-miterlimit="10" fill="none">
				<path d="m32.451 149.61c-0.076-0.148-0.151-0.297-0.227-0.445"/>
				<path stroke-dasharray="0.9925,16.872" d="m26.114 133.46c-2.103-7.492-3.227-15.393-3.227-23.555 0-48.059 38.96-87.02 87.02-87.02 48.059 0 87.02 38.961 87.02 87.02 0 11.652-2.291 22.77-6.445 32.928"/>
				<path d="m186.91 150.47c-0.076 0.146-0.154 0.295-0.234 0.441"/>
			</g>
			<g stroke="#E8E8E8" stroke-width="10" stroke-miterlimit="10" fill="none">
				<path d="m32.451 149.61c-0.076-0.148-0.151-0.297-0.227-0.445"/>
				<path stroke-dasharray="1.0209,34.7109" d="m23.092 115.91c-0.136-1.984-0.204-3.986-0.204-6.004 0-48.059 38.96-87.02 87.02-87.02 48.059 0 87.02 38.961 87.02 87.02 0 8.508-1.221 16.732-3.498 24.506"/>
				<path d="m186.91 150.47c-0.076 0.146-0.154 0.295-0.234 0.441"/>
			</g>
				<circle cy="162.41" cx="109.91" r="31.922" fill="#111"/>
				<path d="m109.91 194.78c-17.85 0-32.372-14.521-32.372-32.371s14.522-32.373 32.372-32.373 32.371 14.523 32.371 32.373-14.52 32.37-32.37 32.37zm0-63.84c-17.354 0-31.473 14.119-31.473 31.473s14.119 31.473 31.473 31.473 31.473-14.119 31.473-31.473-14.12-31.47-31.47-31.47z" fill="#fff"/>
				<path d="m109.91 190.33c-15.396 0-27.922-12.525-27.922-27.922s12.525-27.922 27.922-27.922 27.922 12.525 27.922 27.922-12.53 27.92-27.92 27.92zm0-55.55c-15.23 0-27.622 12.393-27.622 27.623s12.392 27.621 27.622 27.621 27.621-12.391 27.621-27.621-12.39-27.62-27.62-27.62z" fill="#fff"/>
				<g fill="#fff">
					<path d="m135.51 170.04l-1.15-0.34 0.082-0.281 1.152 0.33-0.08 0.29zm1.01-5.38l-1.195-0.102c0.008-0.096 0.016-0.191 0.021-0.289l1.197 0.086c0 0.1-0.01 0.2-0.02 0.3zm-1.29-5.32l-0.037-0.291 1.191-0.156 0.037 0.301-1.19 0.15zm-50.594-0.4l-1.189-0.164 0.043-0.299 1.188 0.172-0.042 0.29zm49.444-4.7c-0.031-0.092-0.062-0.184-0.096-0.275l1.133-0.396c0.033 0.096 0.066 0.191 0.1 0.287l-1.13 0.39zm-48.212-0.38l-1.131-0.402c0.035-0.096 0.069-0.191 0.104-0.287l1.126 0.414c-0.032 0.1-0.066 0.19-0.099 0.28zm46.032-4.38c-0.049-0.082-0.098-0.166-0.146-0.248l1.025-0.621c0.053 0.086 0.105 0.174 0.156 0.262l-1.04 0.61zm-43.783-0.34l-1.024-0.625c0.054-0.086 0.107-0.174 0.161-0.26l1.017 0.639c-0.052 0.08-0.103 0.16-0.154 0.24zm40.693-3.86c-0.066-0.072-0.131-0.145-0.197-0.215l0.879-0.816c0.068 0.074 0.139 0.148 0.207 0.225l-0.89 0.82zm-37.528-0.3l-0.877-0.82c0.069-0.072 0.139-0.146 0.209-0.221l0.868 0.83c-0.067 0.07-0.133 0.14-0.2 0.21zm33.638-3.2c-0.078-0.059-0.158-0.115-0.236-0.172l0.697-0.977c0.082 0.059 0.164 0.119 0.246 0.178l-0.71 0.97zm-29.696-0.23l-0.692-0.98c0.083-0.059 0.166-0.117 0.25-0.174l0.681 0.988c-0.081 0.05-0.16 0.1-0.239 0.16zm25.176-2.4c-0.088-0.041-0.178-0.08-0.266-0.119l0.48-1.1c0.094 0.041 0.186 0.082 0.279 0.125l-0.49 1.09zm-20.62-0.16l-0.479-1.102c0.094-0.041 0.187-0.08 0.279-0.119l0.465 1.105c-0.083 0.04-0.172 0.07-0.26 0.11zm15.66-1.49c-0.094-0.021-0.188-0.041-0.281-0.061l0.244-1.176c0.102 0.021 0.201 0.043 0.301 0.066l-0.26 1.17zm-10.68-0.08l-0.24-1.176c0.1-0.02 0.199-0.041 0.299-0.059l0.227 1.178c-0.1 0.02-0.19 0.04-0.29 0.06zm5.49-0.52l-0.292-0.002 0.003-1.201 0.304 0.004-0.01 1.2z"/>
					<polygon points="133.47 174.99 132.41 174.42 132.48 174.3 133.54 174.85"/>
				</g>
				<path d="m85.385 163.9c-0.015-0.023-0.029-0.053-0.044-0.074 0 0-2.511 0.137-2.995 0.162-0.005 4.34 1.336 8.012 2.99 11.02l2.669-1.371c0.002-0.031 0.002-0.07 0.003-0.104-1.491-2.94-2.415-6.2-2.623-9.64z" fill="#C0272D"/>
				<path d="m137.42 164.74l-2.99-0.25c0.01-0.096 0.016-0.191 0.023-0.287l2.992 0.215c-0.01 0.11-0.02 0.22-0.02 0.32z" fill="#fff"/>
				<path d="m133.23 154.54l-0.096-0.275 2.832-0.99c0.035 0.102 0.07 0.201 0.105 0.303l-2.83 0.97z" fill="#fff"/>
				<path d="m86.716 154.16l-2.827-1.002c0.037-0.105 0.074-0.209 0.113-0.312l2.811 1.049c-0.033 0.08-0.066 0.17-0.097 0.26z" fill="#fff"/>
				<path d="m128.15 145.89l-0.195-0.213 2.197-2.043c0.072 0.078 0.145 0.158 0.217 0.236l-2.23 2.01z" fill="#fff"/>
				<polygon points="91.937 145.6 89.747 143.55 89.966 143.32 92.139 145.39" fill="#fff"/>
				<path d="m120.04 139.98c-0.088-0.041-0.176-0.08-0.264-0.119l1.201-2.748c0.1 0.043 0.199 0.088 0.297 0.131l-1.24 2.74z" fill="#fff"/>
				<path d="m100.14 139.82l-1.193-2.752c0.098-0.043 0.196-0.086 0.296-0.127l1.163 2.766c-0.1 0.03-0.19 0.07-0.27 0.11z" fill="#fff"/>
				<polygon points="110.25 137.8 109.96 137.8 109.97 134.8 110.28 134.8" fill="#fff"/>
				<polygon points="134.26 175.42 131.62 174 131.68 173.88 134.34 175.27" fill="#fff"/>
		<path fill="#fff" clip-rule="evenodd" d="m107.29 170.86h5.179c0.33 0 0.602 0.312 0.602 0.695v5.121c0.588-0.037 1.592 0.016 1.592 0.832v3.799c0 0.404 0.076 0.633 0.203 0.748 0.127 0.113 0.338 0.146 0.596 0.146h0.004v0.002c0.236-0.002 0.424-0.082 0.553-0.205 0.119-0.115 0.186-0.271 0.186-0.438v-5.363l0.109-1.127-0.4-1.029c-0.342-0.557-0.689-0.812-0.689-0.816l0.223-0.295c0.002 0.002 0.393 0.289 0.771 0.906l0.73 0.459 0.148 1.238-0.15 0.664v5.363c0 0.363-0.146 0.711-0.41 0.971-0.26 0.25-0.623 0.412-1.07 0.412v0.002h-0.004c-0.428 0-0.803-0.078-1.09-0.338-0.287-0.256-0.451-0.66-0.451-1.301v-3.799c0-0.172-0.514-0.137-0.85-0.096v5.404h0.447c0.234 0 0.424 0.189 0.424 0.424v0.582c0 0.234-0.189 0.424-0.424 0.424h-7.276c-0.234 0-0.424-0.189-0.424-0.424v-0.582c0-0.234 0.19-0.424 0.424-0.424h0.446v-11.23c0-0.38 0.27-0.7 0.6-0.7zm0.69 0.78c-0.34 0-0.619 0.279-0.619 0.619v3.52c0 0.342 0.279 0.619 0.619 0.619h3.791c0.344 0 0.621-0.277 0.621-0.619v-3.52c0-0.34-0.277-0.619-0.621-0.619h-3.79z" fill-rule="evenodd"/>
</g>
<g id="needleFuel">
	<path stroke="#BC3A11" stroke-miterlimit="10" d="m109.91 136.9s-2.311 24.619-2.311 25.764 1.035 2.072 2.311 2.072 2.311-0.928 2.311-2.072-2.31-25.76-2.31-25.76zm0 26.84c-0.598 0-1.082-0.436-1.082-0.971 0-0.537 0.484-0.971 1.082-0.971s1.082 0.434 1.082 0.971c0 0.54-0.49 0.97-1.08 0.97z" fill="#F05A24"/>
</g>
<g id="needleSpeed">
	<path stroke="#BC3A11" stroke-width="2" stroke-miterlimit="10" d="m109.91 23.435s-6.979 82.917-6.979 86.771 3.125 6.979 6.979 6.979 6.978-3.125 6.978-6.979c0-3.86-6.98-86.775-6.98-86.775zm0 90.405c-1.806 0-3.269-1.465-3.269-3.27s1.463-3.27 3.269-3.27c1.804 0 3.269 1.465 3.269 3.27s-1.47 3.27-3.27 3.27z" fill="#F05A24"/>
</g>
<g id="shine">
		<linearGradient id="SVGID_2_" y2="115.97" gradientUnits="userSpaceOnUse" x2="109.91" y1="5.8555" x1="109.91">
			<stop stop-color="#fff" stop-opacity=".4" offset="0"/>
			<stop stop-color="#fff" stop-opacity="0" offset="1"/>
		</linearGradient>
		<path d="m200.75 86.907c0 50.17-37.953 11.059-90.844 11.059s-90.844 39.111-90.844-11.059c0-32.939 43.466-72.468 90.844-72.468 47.37 0 90.84 40.548 90.84 72.468z" fill="url(#SVGID_2_)"/>
			<radialGradient id="SVGID_3_" gradientUnits="userSpaceOnUse" cy="6634.9" cx="108.91" gradientTransform="matrix(1 0 0 -.2806 0 2021.8)" r="177.56">
			<stop stop-color="#fff" stop-opacity="0" offset=".2893"/>
			<stop stop-color="#fff" stop-opacity=".4" offset="1"/>
		</radialGradient>
		<path d="m179.01 171.22c0-24.467-28.871-5.393-69.105-5.393s-69.106-19.074-69.106 5.393c0 16.062 33.065 35.338 69.106 35.338s69.11-19.78 69.11-35.34z" fill="url(#SVGID_3_)"/>
</g>
</svg>

<?xml version="1.0" encoding="utf-8"?>
<!-- Generator: Adobe Illustrator 16.2.1, SVG Export Plug-In . SVG Version: 6.00 Build 0)  -->
<!DOCTYPE svg PUBLIC "-//W3C//DTD SVG 1.1//EN" "http://www.w3.org/Graphics/SVG/1.1/DTD/svg11.dtd">
<svg version="1.1" xmlns="http://www.w3.org/2000/svg" xmlns:xlink="http://www.w3.org/1999/xlink" 
	 viewBox="0 0 219.814 219.814" enable-background="new 0 0 219.814 219.814"
	 xml:space="preserve">
<g id="bg">
	<g>
		<linearGradient id="SVGID_1_" gradientUnits="userSpaceOnUse" x1="109.9067" y1="9.9463" x2="109.9067" y2="186.3546">
			<stop  offset="0" style="stop-color:#050505"/>
			<stop  offset="1" style="stop-color:#111111"/>
		</linearGradient>
		<circle fill="url(#SVGID_1_)" stroke="#3A3A3A" stroke-width="7" stroke-miterlimit="10" cx="109.907" cy="109.907" r="106.407"/>
		<circle fill="none" stroke="#E8E8E8" stroke-miterlimit="10" cx="109.907" cy="109.907" r="92.574"/>
		<g>
			<g>
				<path fill="none" stroke="#FFFFFF" stroke-width="4" stroke-miterlimit="10" d="M32.451,149.606
					c-0.076-0.148-0.151-0.297-0.227-0.445"/>
				<path fill="none" stroke="#FFFFFF" stroke-width="4" stroke-miterlimit="10" stroke-dasharray="0.9925,16.872" d="
					M26.114,133.462c-2.103-7.492-3.227-15.393-3.227-23.555c0-48.059,38.96-87.02,87.02-87.02c48.059,0,87.02,38.961,87.02,87.02
					c0,11.652-2.291,22.77-6.445,32.928"/>
				<path fill="none" stroke="#FFFFFF" stroke-width="4" stroke-miterlimit="10" d="M186.913,150.472
					c-0.076,0.146-0.154,0.295-0.234,0.441"/>
			</g>
		</g>
		<g>
			<g>
				<path fill="none" stroke="#E8E8E8" stroke-width="10" stroke-miterlimit="10" d="M32.451,149.606
					c-0.076-0.148-0.151-0.297-0.227-0.445"/>
				<path fill="none" stroke="#E8E8E8" stroke-width="10" stroke-miterlimit="10" stroke-dasharray="1.0209,34.7109" d="
					M23.092,115.911c-0.136-1.984-0.204-3.986-0.204-6.004c0-48.059,38.96-87.02,87.02-87.02c48.059,0,87.02,38.961,87.02,87.02
					c0,8.508-1.221,16.732-3.498,24.506"/>
				<path fill="none" stroke="#E8E8E8" stroke-width="10" stroke-miterlimit="10" d="M186.913,150.472
					c-0.076,0.146-0.154,0.295-0.234,0.441"/>
			</g>
		</g>
	</g>
	<g>
		<g>
			<g>
				<circle fill="#111111" cx="109.907" cy="162.407" r="31.922"/>
				<path fill="#FFFFFF" d="M109.907,194.778c-17.85,0-32.372-14.521-32.372-32.371s14.522-32.373,32.372-32.373
					s32.371,14.523,32.371,32.373S127.757,194.778,109.907,194.778z M109.907,130.935c-17.354,0-31.473,14.119-31.473,31.473
					s14.119,31.473,31.473,31.473s31.473-14.119,31.473-31.473S127.261,130.935,109.907,130.935z"/>
			</g>
			<g>
				<path fill="#FFFFFF" d="M109.907,190.329c-15.396,0-27.922-12.525-27.922-27.922s12.525-27.922,27.922-27.922
					s27.922,12.525,27.922,27.922S125.304,190.329,109.907,190.329z M109.907,134.784c-15.23,0-27.622,12.393-27.622,27.623
					s12.392,27.621,27.622,27.621s27.621-12.391,27.621-27.621S125.138,134.784,109.907,134.784z"/>
			</g>
			<g>
				<g>
					<path fill="#FFFFFF" d="M135.507,170.038l-1.15-0.34l0.082-0.281l1.152,0.33L135.507,170.038z M136.519,164.661l-1.195-0.102
						c0.008-0.096,0.016-0.191,0.021-0.289l1.197,0.086C136.536,164.458,136.528,164.56,136.519,164.661z M135.229,159.335
						l-0.037-0.291l1.191-0.156l0.037,0.301L135.229,159.335z M84.636,158.938l-1.189-0.164l0.043-0.299l1.188,0.172L84.636,158.938
						z M134.077,154.237c-0.031-0.092-0.062-0.184-0.096-0.275l1.133-0.396c0.033,0.096,0.066,0.191,0.1,0.287L134.077,154.237z
						 M85.868,153.86l-1.131-0.402c0.035-0.096,0.069-0.191,0.104-0.287l1.126,0.414C85.935,153.677,85.901,153.769,85.868,153.86z
						 M131.901,149.485c-0.049-0.082-0.098-0.166-0.146-0.248l1.025-0.621c0.053,0.086,0.105,0.174,0.156,0.262L131.901,149.485z
						 M88.117,149.142l-1.024-0.625c0.054-0.086,0.107-0.174,0.161-0.26l1.017,0.639C88.219,148.978,88.168,149.06,88.117,149.142z
						 M128.806,145.278c-0.066-0.072-0.131-0.145-0.197-0.215l0.879-0.816c0.068,0.074,0.139,0.148,0.207,0.225L128.806,145.278z
						 M91.282,144.981l-0.877-0.82c0.069-0.072,0.139-0.146,0.209-0.221l0.868,0.83C91.415,144.841,91.349,144.911,91.282,144.981z
						 M124.917,141.784c-0.078-0.059-0.158-0.115-0.236-0.172l0.697-0.977c0.082,0.059,0.164,0.119,0.246,0.178L124.917,141.784z
						 M95.224,141.55l-0.692-0.98c0.083-0.059,0.166-0.117,0.25-0.174l0.681,0.988C95.382,141.438,95.303,141.493,95.224,141.55z
						 M120.401,139.153c-0.088-0.041-0.178-0.08-0.266-0.119l0.48-1.1c0.094,0.041,0.186,0.082,0.279,0.125L120.401,139.153z
						 M99.78,138.991l-0.479-1.102c0.094-0.041,0.187-0.08,0.279-0.119l0.465,1.105C99.957,138.915,99.868,138.952,99.78,138.991z
						 M115.44,137.503c-0.094-0.021-0.188-0.041-0.281-0.061l0.244-1.176c0.102,0.021,0.201,0.043,0.301,0.066L115.44,137.503z
						 M104.761,137.421l-0.24-1.176c0.1-0.02,0.199-0.041,0.299-0.059l0.227,1.178C104.951,137.382,104.856,137.401,104.761,137.421
						z M110.253,136.903l-0.292-0.002l0.003-1.201l0.304,0.004L110.253,136.903z"/>
					<polygon fill="#FFFFFF" points="133.466,174.993 132.411,174.423 132.478,174.298 133.54,174.854 					"/>
				</g>
			</g>
			<g>
				<path fill="#C0272D" d="M85.385,163.896c-0.015-0.023-0.029-0.053-0.044-0.074c0,0-2.511,0.137-2.995,0.162
					c-0.005,4.34,1.336,8.012,2.99,11.02l2.669-1.371c0.002-0.031,0.002-0.07,0.003-0.104
					C86.517,170.604,85.593,167.345,85.385,163.896z"/>
				<path fill="#FFFFFF" d="M137.415,164.745l-2.99-0.25c0.01-0.096,0.016-0.191,0.023-0.287l2.992,0.215
					C137.433,164.53,137.425,164.638,137.415,164.745z"/>
				<path fill="#FFFFFF" d="M133.228,154.536l-0.096-0.275l2.832-0.99c0.035,0.102,0.07,0.201,0.105,0.303L133.228,154.536z"/>
				<path fill="#FFFFFF" d="M86.716,154.163l-2.827-1.002c0.037-0.105,0.074-0.209,0.113-0.312l2.811,1.049
					C86.78,153.985,86.747,154.073,86.716,154.163z"/>
				<path fill="#FFFFFF" d="M128.146,145.89l-0.195-0.213l2.197-2.043c0.072,0.078,0.145,0.158,0.217,0.236L128.146,145.89z"/>
				<polygon fill="#FFFFFF" points="91.937,145.599 89.747,143.548 89.966,143.317 92.139,145.386 				"/>
				<path fill="#FFFFFF" d="M120.038,139.978c-0.088-0.041-0.176-0.08-0.264-0.119l1.201-2.748c0.1,0.043,0.199,0.088,0.297,0.131
					L120.038,139.978z"/>
				<path fill="#FFFFFF" d="M100.136,139.817l-1.193-2.752c0.098-0.043,0.196-0.086,0.296-0.127l1.163,2.766
					C100.312,139.741,100.225,139.778,100.136,139.817z"/>
				<polygon fill="#FFFFFF" points="110.25,137.804 109.957,137.802 109.966,134.802 110.285,134.804 				"/>
				<polygon fill="#FFFFFF" points="134.259,175.421 131.618,173.995 131.681,173.882 134.339,175.272 				"/>
			</g>
		</g>
		<path fill-rule="evenodd" clip-rule="evenodd" fill="#FFFFFF" d="M107.291,170.864h5.179c0.33,0,0.602,0.312,0.602,0.695v5.121
			c0.588-0.037,1.592,0.016,1.592,0.832v3.799c0,0.404,0.076,0.633,0.203,0.748c0.127,0.113,0.338,0.146,0.596,0.146h0.004v0.002
			c0.236-0.002,0.424-0.082,0.553-0.205c0.119-0.115,0.186-0.271,0.186-0.438v-0.002v-5.361l0.109-1.127l-0.4-1.029
			c-0.342-0.557-0.689-0.812-0.689-0.816l0.223-0.295c0.002,0.002,0.393,0.289,0.771,0.906l0.73,0.459l0.148,1.238l-0.15,0.664
			v5.361v0.002c0,0.363-0.146,0.711-0.41,0.971c-0.26,0.25-0.623,0.412-1.07,0.412v0.002h-0.004c-0.428,0-0.803-0.078-1.09-0.338
			c-0.287-0.256-0.451-0.66-0.451-1.301v-3.799c0-0.172-0.514-0.137-0.85-0.096v5.404h0.447c0.234,0,0.424,0.189,0.424,0.424v0.582
			c0,0.234-0.189,0.424-0.424,0.424h-7.276c-0.234,0-0.424-0.189-0.424-0.424v-0.582c0-0.234,0.19-0.424,0.424-0.424h0.446V171.56
			C106.688,171.177,106.96,170.864,107.291,170.864L107.291,170.864z M107.983,171.638c-0.34,0-0.619,0.279-0.619,0.619v3.52
			c0,0.342,0.279,0.619,0.619,0.619h3.791c0.344,0,0.621-0.277,0.621-0.619v-3.52c0-0.34-0.277-0.619-0.621-0.619H107.983z"/>
	</g>
</g>
<g id="needleFuel">
	<path fill="#F05A24" stroke="#BC3A11" stroke-miterlimit="10" d="M109.907,136.901c0,0-2.311,24.619-2.311,25.764
		s1.035,2.072,2.311,2.072s2.311-0.928,2.311-2.072S109.907,136.901,109.907,136.901z M109.907,163.743
		c-0.598,0-1.082-0.436-1.082-0.971c0-0.537,0.484-0.971,1.082-0.971s1.082,0.434,1.082,0.971
		C110.989,163.308,110.505,163.743,109.907,163.743z"/>
</g>
<g id="needleSpeed">
	<path fill="#F05A24" stroke="#BC3A11" stroke-width="2" stroke-miterlimit="10" d="M109.908,23.435c0,0-6.979,82.917-6.979,86.771
		c0,3.854,3.125,6.979,6.979,6.979s6.978-3.125,6.978-6.979C116.886,106.352,109.908,23.435,109.908,23.435z M109.908,113.837
		c-1.806,0-3.269-1.465-3.269-3.27s1.463-3.27,3.269-3.27c1.804,0,3.269,1.465,3.269,3.27S111.712,113.837,109.908,113.837z"/>
</g>
<g id="shine">
	<g>
		<linearGradient id="SVGID_2_" gradientUnits="userSpaceOnUse" x1="109.9067" y1="5.8555" x2="109.9067" y2="115.973">
			<stop  offset="0" style="stop-color:#FFFFFF;stop-opacity:0.4"/>
			<stop  offset="1" style="stop-color:#FFFFFF;stop-opacity:0"/>
		</linearGradient>
		<path fill="url(#SVGID_2_)" d="M200.751,86.907c0,50.17-37.953,11.059-90.844,11.059s-90.844,39.111-90.844-11.059
			c0-32.939,43.466-72.468,90.844-72.468C157.284,14.439,200.751,54.987,200.751,86.907z"/>
		
			<radialGradient id="SVGID_3_" cx="108.9067" cy="6634.8809" r="177.5638" gradientTransform="matrix(1 0 0 -0.2806 0 2021.7631)" gradientUnits="userSpaceOnUse">
			<stop  offset="0.2893" style="stop-color:#FFFFFF;stop-opacity:0"/>
			<stop  offset="1" style="stop-color:#FFFFFF;stop-opacity:0.4"/>
		</radialGradient>
		<path fill="url(#SVGID_3_)" d="M179.013,171.216c0-24.467-28.871-5.393-69.105-5.393s-69.106-19.074-69.106,5.393
			c0,16.062,33.065,35.338,69.106,35.338S179.013,186.78,179.013,171.216z"/>
	</g>
</g>
</svg>
